X: 4356
T: PRELUDE. (Rigoletto.)
%R: march
B: James Kerr "Merry Melodies" v.4 p.38 #356
Z: 2016 John Chambers <jc:trillian.mit.edu>
M: C|
L: 1/8
K: G
B2g2 |\
A2f2 G2e2 | F2d2 E2c2 |\
D2B2 F2G2 | (B2A)z B2g2 |\
A2f2 G2e2 | F2d2 E2c2 |\
D2B2 A2F2 | G2z2 f2d2 |\
f2d2 fede | f2d2 d2A2 |
d2A2 BAGF | A2G2 f2d2 |\
f2d2 fede | f2d2 d2A2 |\
B2E2 AGFE | D2z2 ||\
d^cBA |\
(G2F)z EFGE | (F2D)z ^cdec |\
d2B2 c2^A2 | B2z2 :|
|: B7/B/ |\
B7/B/ B2c2 | (e2d)z G7/G/ |\
G7/G/ G2^G2 | (B2A)z B7/B/ |\
B7/B/ B2c2 | (e2d)z G7/G/ |\
[1 G7/^G/ B2A2 | D2z2 :|\
[2 G7/B/ A2D2 | G2z2 |]

%%sep 1 1 500
%%sep 1 1 500

